desktop-themes/DeLorean-Dark/cinnamon/close.svg

<?xml version="1.0" encoding="UTF-8" standalone="no"?>
<svg xmlns="http://www.w3.org/2000/svg" height="16" width="16" version="1.1">
 <defs>
  <linearGradient id="a" y2="-.062257" gradientUnits="userSpaceOnUse" x2="7.7198" y1="16" x1="7.8444">
   <stop stop-color="#c4c4c4" offset="0"/>
   <stop stop-color="#fff" offset="1"/>
  </linearGradient>
 </defs>
 <path fill="url(#a)" d="m10.5 3.5 2 2-2.5 2.5 2.5 2.5-2 2l-2.5-2.5-2.5 2.5-2-2 2.5-2.5-2.5-2.5 2-2 2.5 2.5 2.5-2.5zm-10.5 4.5c0-4.418 3.582-8 8-8s8 3.582 8 8-3.582 8-8 8-8-3.582-8-8z" fill-rule="evenodd"/>
</svg>

<?xml version="1.0" encoding="UTF-8" standalone="no"?>
<!-- Generator: Adobe Illustrator 13.0.2, SVG Export Plug-In . SVG Version: 6.00 Build 14948)  -->
<svg
   xmlns:dc="http://purl.org/dc/elements/1.1/"
   xmlns:cc="http://creativecommons.org/ns#"
   xmlns:rdf="http://www.w3.org/1999/02/22-rdf-syntax-ns#"
   xmlns:svg="http://www.w3.org/2000/svg"
   xmlns="http://www.w3.org/2000/svg"
   xmlns:xlink="http://www.w3.org/1999/xlink"
   xmlns:sodipodi="http://sodipodi.sourceforge.net/DTD/sodipodi-0.dtd"
   xmlns:inkscape="http://www.inkscape.org/namespaces/inkscape"
   version="1.1"
   id="Foreground"
   x="0px"
   y="0px"
   width="16px"
   height="16px"
   viewBox="0 0 16 16"
   enable-background="new 0 0 16 16"
   xml:space="preserve"
   sodipodi:version="0.32"
   inkscape:version="0.46"
   sodipodi:docname="x_circle_16.svg"
   inkscape:output_extension="org.inkscape.output.svg.inkscape"><metadata
   id="metadata2399"><rdf:RDF><cc:Work
       rdf:about=""><dc:format>image/svg+xml</dc:format><dc:type
         rdf:resource="http://purl.org/dc/dcmitype/StillImage" /></cc:Work></rdf:RDF></metadata><defs
   id="defs2397"><linearGradient
     id="linearGradient3173"><stop
       style="stop-color:#c4c4c4;stop-opacity:1;"
       offset="0"
       id="stop3175" /><stop
       style="stop-color:#ffffff;stop-opacity:1;"
       offset="1"
       id="stop3177" /></linearGradient><inkscape:perspective
     sodipodi:type="inkscape:persp3d"
     inkscape:vp_x="0 : 8 : 1"
     inkscape:vp_y="0 : 1000 : 0"
     inkscape:vp_z="16 : 8 : 1"
     inkscape:persp3d-origin="8 : 5.3333333 : 1"
     id="perspective2401" /><linearGradient
     inkscape:collect="always"
     xlink:href="#linearGradient3173"
     id="linearGradient3179"
     x1="7.844358"
     y1="16"
     x2="7.7198443"
     y2="-0.062256809"
     gradientUnits="userSpaceOnUse" /></defs><sodipodi:namedview
   inkscape:window-height="713"
   inkscape:window-width="1197"
   inkscape:pageshadow="2"
   inkscape:pageopacity="0.0"
   guidetolerance="10.0"
   gridtolerance="10.0"
   objecttolerance="10.0"
   borderopacity="1.0"
   bordercolor="#666666"
   pagecolor="#ffffff"
   id="base"
   showgrid="false"
   inkscape:zoom="32.125"
   inkscape:cx="8"
   inkscape:cy="8"
   inkscape:window-x="40"
   inkscape:window-y="40"
   inkscape:current-layer="Foreground" />
<path
   fill-rule="evenodd"
   clip-rule="evenodd"
   d="M10.5,3.5l2,2L10,8l2.5,2.5l-2,2L8,10l-2.5,2.5l-2-2L6,8L3.5,5.5l2-2L8,6L10.5,3.5  z M0,8c0-4.418,3.582-8,8-8s8,3.582,8,8s-3.582,8-8,8S0,12.418,0,8z"
   id="path2394"
   style="fill-opacity:1;fill:url(#linearGradient3179)" />
</svg>
